X: 34839
T: Roaring Barmaid, The
R: jig
M: 6/8
K: Gmajor
|:GFG EGD|GFG EGD|GFG BGG|dGG B/c/dA|
GFG EGD|GFG EGD|GAB deg|deg edB:|
deg b3|bab deg|b3 bag|edB deg|
b3 bab|agg bgg|agg deg|deg edB:|

